svgs/thin/stamp.svg

<svg xmlns="http://www.w3.org/2000/svg" viewBox="0 0 512 512"><!--! Font Awesome Pro 6.4.0 by @fontawesome - https://fontawesome.com License - https://fontawesome.com/license (Commercial License) Copyright 2023 Fonticons, Inc. --><path d="M336 96c0-44.2-35.8-80-80-80s-80 35.8-80 80c0 14.1 3.6 27.2 10 38.7c9.6 17.4 22 39.8 22 65.1c0 48.7-39.5 88.2-88.2 88.2H112c-53 0-96 43-96 96c0 8.8 7.2 16 16 16H480c8.8 0 16-7.2 16-16c0-53-43-96-96-96h-7.8c-48.7 0-88.2-39.5-88.2-88.2c0-25.3 12.4-47.7 22-65.1l14 7.8-14-7.8c6.3-11.5 10-24.6 10-38.7zm4 46.5c-9.9 18-20 36.8-20 57.4c0 39.9 32.3 72.2 72.2 72.2H400c61.9 0 112 50.1 112 112c0 17.7-14.3 32-32 32H32c-17.7 0-32-14.3-32-32c0-61.9 50.1-112 112-112h7.8c39.9 0 72.2-32.3 72.2-72.2c0-20.5-10.1-39.4-20-57.4c-7.6-13.8-12-29.6-12-46.5c0-53 43-96 96-96s96 43 96 96c0 16.9-4.3 32.7-12 46.5zM48 456v16c0 13.3 10.7 24 24 24H440c13.3 0 24-10.7 24-24V456c0-4.4 3.6-8 8-8s8 3.6 8 8v16c0 22.1-17.9 40-40 40H72c-22.1 0-40-17.9-40-40V456c0-4.4 3.6-8 8-8s8 3.6 8 8z"/></svg>

<svg xmlns="http://www.w3.org/2000/svg" viewBox="0 0 512 512"><!--! Font Awesome Pro 6.3.0 by @fontawesome - https://fontawesome.com License - https://fontawesome.com/license (Commercial License) Copyright 2023 Fonticons, Inc. --><path d="M340 142.5C330.1 160.4 320 179.3 320 199.8C320 239.7 352.3 272 392.2 272H400C461.9 272 512 322.1 512 384C512 401.7 497.7 416 480 416H32C14.33 416 0 401.7 0 384C0 322.1 50.14 272 112 272H119.8C159.7 272 192 239.7 192 199.8C192 179.3 181.9 160.4 171.1 142.5C164.3 128.7 160 112.9 160 96C160 42.98 202.1 0 256 0C309 0 352 42.98 352 96C352 112.9 347.7 128.7 340 142.5zM256 16C211.8 16 176 51.82 176 96C176 110.1 179.6 123.2 185.1 134.7C195.6 152.1 208 174.5 208 199.8C208 248.5 168.5 288 119.8 288H112C58.98 288 16 330.1 16 384C16 392.8 23.16 400 32 400H480C488.8 400 496 392.8 496 384C496 330.1 453 288 400 288H392.2C343.5 288 304 248.5 304 199.8C304 174.5 316.4 152.1 326 134.7C332.4 123.2 336 110.1 336 96C336 51.82 300.2 16 256 16zM48 472C48 485.3 58.75 496 72 496H440C453.3 496 464 485.3 464 472V456C464 451.6 467.6 448 472 448C476.4 448 480 451.6 480 456V472C480 494.1 462.1 512 440 512H72C49.91 512 32 494.1 32 472V456C32 451.6 35.58 448 40 448C44.42 448 48 451.6 48 456V472zM340 142.5L326 134.7z"/></svg>
